X:1
T:Title
%%score { ( 1 3 ) | ( 2 4 ) }
L:1/8
Q:1/4=100
M:6/8
K:Bb
V:1 treble nm="Grand Piano"
V:3 treble 
V:2 bass 
V:4 bass 
V:1
 [DF][_D=E][=DF] [Fd]2 [_Ec] | [DB]3 .[DF]3 | [B,EG][B,D^F][B,EG] [EGB]2 [B,EG] | [B,DF]6 | %4
w: Adam~Geibel * * * *||||
 [A,CE][A,DF][A,EG] [CEA]2 [A,EG] | [B,DF]3 .[DFB]3 | [=EG][EA][EB] [Ec]2 [EB] | A6 | %8
w: ||||
 [DF][_D=E][=DF] [Fd]2 [_Ec] | [DB]3 .[DF]3 | G^FG [GB]2 [Gc] | [^Fd]6 | d_d=d e2 d | %13
w: |||||
 .[Ed]3 .[CEG]3 | AGA B2 =B | c3 _d3 | [Fd]3 [DB]3 | [EG]3 z3 | FGA [Ge]d_d | [Fd]2 [DB] .[DF]3 | %20
w: |||||||
 [Fd]3 [DB]3 | [EG]3 z3 | [C=E][EG][EB] .[Ed]2 [B,EB] | c3 _d3 | [Fd]3 [DB]3 | [EG]3 z3 | %26
w: ||||||
 FGA [Ge]d_d | [Fd]2 [DB] .[DF]3 | f3 z3 | [Gc]3 z3 | FGA [Ge]2 [Fd] | B6 |] %32
w: ||||||
V:2
 [B,,B,][B,,B,][B,,B,] [F,A,]2 [F,A,] | [B,,B,]3 .[B,,B,]3 | E,E,E, E,2 E, | B,,6 | F,F,F, F,2 F, | %5
 B,,3 .B,,3 | [C,C][C,C][C,C] [C,G,]2 [C,C] | F3 z3 | [B,,B,][B,,B,][B,,B,] [F,A,]2 [F,A,] | %9
 [B,,B,]3 .[B,,B,]3 | [E,B,E][E,B,D][E,B,E] [E,B,]2 [E,G,] | [D,A,]6 | %12
 [G,=B,F][G,B,F][G,B,F] [G,B,F]2 [G,B,F] | z2 c .C,3 | [F,CE][F,CE][F,CE] [F,B,D]2 [F,_A,F] | %15
 [F,A,F]6 | [B,,B,]2 [B,,B,] [B,,B,]3 | .[E,B,]3 [B,,B,]3 | [F,A,E][F,B,E][F,CE] z F[F,=E] | %19
 [B,,F,]3 .[B,,B,]3 | [B,,B,]2 [B,,B,] [B,,B,]3 | .[E,B,]3 [B,,B,]3 | %22
 [C,B,]2 [C,G,] z[K:treble] c[K:bass]C, | [F,A,F]6 | [B,,B,]2 [B,,B,] [B,,B,]3 | %25
 .[E,B,]3 [B,,B,]3 | [F,A,E][F,B,E][F,CE] z F[F,=E] | [B,,F,]3 .[B,,B,]3 | [B,D]2 B, B,3 | %29
 E,2 E, [E,B,E]3 | [F,A,E][F,B,E][F,CE] [F,A,]2 [F,A,] | z2 G, .F,3 |] %32
V:3
 x6 | x6 | x6 | x6 | x6 | x6 | x6 | z3 .E3 | x6 | x6 | x6 | x6 | x6 | x6 | x6 | x6 | x6 | %17
 z2 [E,B,] [DF]3 | x6 | x6 | x6 | z2 [E,B,] [DF]3 | x6 | x6 | x6 | z2 [E,B,] [DF]3 | x6 | x6 | %28
 _A2- [DA-] [DAB]3 | E2 E G3 | x6 | [B,D]2 E .D3 |] %32
V:4
 x6 | x6 | x6 | x6 | x6 | x6 | x6 | [F,C]6 | x6 | x6 | x6 | x6 | x6 | [C,C]3 z3 | x6 | x6 | x6 | %17
 x6 | z3 .[F,A,]3 | x6 | x6 | x6 | z3 .[C,B,]3[K:treble][K:bass] | x6 | x6 | x6 | z3 .[F,A,]3 | %27
 x6 | x6 | x6 | x6 | B,,6 |] %32

